X:2160
T:Won't you love? Can't you love? Love if you can? 
C:Charles Clague 
C:Traditional
O:Isle of Man
Z:Clague collection
B:Kiaull Vannin #160
N:See also KV 40,208,415,416,429 
M:3/8 
L:1/8
Q:220 
K:G 
GGG|Bcd|GGG|FED|GGG|Bcd|gfg|d3|gfg|dcB|ede|dBG|cBc|Bdc|BGA|G3|| 

